X:557
%%etbk:tnset id:293,pos:1,rep:3x,ant:
%%etbk:pldat 2016-08-18T18:38,2016-08-17T16:04,2016-08-16T15:57,2016-08-15T19:06,2016-08-11T18:40,2016-08-10T15:54,2016-08-09T15:47,2016-08-08T18:34,2016-06-09T19:14,2016-06-08T16:26,2016-06-07T16:27,2016-06-04T16:28,2016-06-02T18:53,2016-06-01T15:29,2016-05-31T18:01,2015-02-22T13:10,2015-02-21T17:14,2015-02-19T19:10,2015-02-17T16:29,2015-01-14T17:25,2015-01-13T16:04,2015-01-10T14:28,2015-01-08T18:52,2015-01-07T15:48,2015-01-05T18:39,2014-10-16T18:21,2014-10-15T18:12,2014-10-15T18:06,2014-10-10T15:09,2014-09-16T17:36,2014-09-13T12:44,2014-09-10T16:14,2014-08-14T18:06,2014-08-13T19:39,2014-08-12T18:12,2014-08-11T18:04,2014-08-10T12:55,2014-08-06T18:45,2014-08-04T19:07,2014-08-03T16:27,2014-07-31T18:31,2014-07-29T17:59,2014-07-26T16:11,2014-07-24T19:12,2014-07-22T18:17,2014-07-20T14:46,2014-07-18T09:29,2014-07-14T16:54,2014-07-04T10:48,2014-07-02T11:35,2014-06-30T10:55,2014-06-20T15:16,2014-06-19T18:05,2014-06-17T18:01,2014-06-12T18:24,2014-06-10T18:42,2014-06-09T13:44,2014-06-07T15:33,2014-06-04T15:52,2014-06-02T18:06,2014-06-01T10:36,2014-05-31T16:36,2014-05-28T09:31,2014-05-22T18:10,2014-04-23T15:40,2014-04-22T18:17,2014-04-21T16:32,2014-04-21T13:43,2014-04-18T12:10,2014-04-12T11:09,2014-04-08T17:34,2014-04-07T18:25,2014-04-06T10:24,2014-04-02T16:22,2014-04-02T16:11,2014-01-30T17:50,2014-01-29T15:49,2014-01-28T15:33,2014-01-27T18:01,2014-01-26T14:17,2014-01-19T14:51,2014-01-18T15:59,2014-01-16T18:38,2014-01-14T18:03,2014-01-13T18:24,2014-01-12T14:04,2014-01-08T16:59,2014-01-07T16:55
T:Broom O'er the Cowdenknowes
R:Song
H: Created 2014-01-25 /  Last Modified 2015-02-18
Z: Piano Box Version by Martin Fleischmann
M:2/2
L:1/8
P: I-SS-I-SS-I                % play the parts in this order
K:Gmaj
P:I
%%score (M1) (M2) 
V:M1  clef=treble  
V:M2  clef=treble   
%            End of header, start of tune body:
[V:M1] d3e dcBA | B3c BAGF | GABG ABGA | -A2AG ABce | 
[V:M2] "G-Drone"!3!B3c !3!BA!1!G!2!E | !3!F3G FFED | !2!EFGE FGEF | -F2!3!FE !3!F!1!GA!4!c | 
[V:M1] d3e dcBA | B3c BAGF | EFGE FGEF | -F2FE FGAB |
[V:M2] !3!B3c !3!BA!1!G!2!E | !3!F3G !3!FF!2!E!3!F | !1!GABG ABGA | -A2AG !2!ABc!5!d | 
[V:M1] A4 -ABcA | B2AG -GABG | A4 FGAD | -D4 cBAG |
[V:M2] "A-Drone"!4!!2!c4 -cdec | !3!d2c!1!B -B!2!A!1!GB |  "D-Drone"!4!c4 !2!ABcA |-A4 !2!A!3!B!4!c!5!d |
[V:M1] A4 -ABcA | B2AG -GABG | A8 | -A8  |
[V:M2] "A-Drone"!4!!2!c4 -cdec | !3!d2c!1!B -B!2!A!1!G!3!B | "D-Drone"!2!A8 | -A8 |
P:S 
[V:M1]"G" z2D4 D2| "D"D6 D2 | "G"D2 C2 B,2 A,2 |G,6 D2 |
[V:M2]"G" [B,8D] | "D"[A,8D] | "G"[G,8D] | -[G,8D] |
[V:M1]"G"G4 G2 A2 |(B2 A2) (G2 F2) | "C"(E8 | E8) |
[V:M2]"G" [D8G] | -[D8G] | "C" [C8E] | -[C8E] |
[V:M1]"G"z2D2G2 A2 | "Gmaj7"B4 B2 A2 | "em7"G6 B,2 | "G"D8 |
[V:M2]"G"[D8G] | "Gmaj7"[D8F] | "em"[B,8E] | "em7"[B,8D] |
[V:M1] "C"C6 C2 | "C"C2B,2C2D2 | "D"A,8 | -A,8|
[V:M2] "C"[A,8C] | "C"-[G,8C] | "D"[A,8D] | -[A,8D]|


